X:1
T:Title
%%score { ( 1 3 ) | ( 2 4 ) }
L:1/8
Q:1/4=100
M:4/4
K:Ab
V:1 treble nm="Grand Piano"
V:3 treble 
V:2 bass 
V:4 bass 
V:1
 A2 A2 A2 A2 | [=Ec]2 [Ec]2 F4 | F2 z G [A,EA]2 [A,A]B | [Ec]2 [Ec]2 B4 | A2 A2 A2 A2 | %5
w: E.~W.~Kellogg * * *|||||
 [=Ec]2 [Ec]2 F2 F2 | F2 FG [FA]2 [=EG]2 |[M:3/4] F6 |[M:1/4] E2 |[M:4/4] c3 B A2 F2 | A3 A A4 | %11
w: ||||||
 c3 B A2 F2 | B3 c B4 | c2 dc B2 cB | A2 BA [C=EG]2 E-[EG] | z GE-[EB] c2 dc | c2 B2 [CA]4 |] %17
w: ||||||
V:2
 [A,C]2 [A,C]2 [A,C]2 [A,C]2 | [C,G,]2 [C,G,]2 [F,A,]4 | [D,A,]2 A,A, C,2 C,[B,,G,] | %3
 [A,,A,]2 [A,,A,]2 [E,G,E]4 | [A,C]2 [A,C]2 [A,C]2 [A,C]2 | [C,G,]2 [C,G,]2 [F,A,]2 [F,A,]2 | %6
 [D,A,]2 A,[B,=E] [C,C]2 [C,B,]2 |[M:3/4] [F,A,]6 |[M:1/4][K:treble] [A,C]2 | %9
[M:4/4] [A,EA]3 [A,DE] [A,CE]2 [A,D]2 | [A,CE]3 [A,DF][K:bass] [A,CE]4 | %11
 [A,E]3 [A,D] [A,C]2 [A,=D]2 | [E,G,E]3 [E,A,E] [E,G,E]4 | [A,E]2 FE[K:bass] [E,G,D]2 [E,G,D]2 | %14
 [F,A,C]2 [F,CF]2 C,2 z B, | A,B,C,[E,G,] [A,E]2 [D,A,]2 | [E,A,E]2 [E,G,D]2 [A,,A,]4 |] %17
V:3
 x8 | x8 | z2 F2 z2 E2 | x8 | x8 | x8 | x8 |[M:3/4] x6 |[M:1/4] x2 |[M:4/4] x8 | x8 | x8 | x8 | %13
 x8 | z4 z2 .[CA]2 | F2 .[A,A]2 z2 F2 | x8 |] %17
V:4
 x8 | x8 | z2 D,2 z4 | x8 | x8 | x8 | z2 D,2 z4 |[M:3/4] x6 |[M:1/4][K:treble] x2 |[M:4/4] x8 | %10
 x4[K:bass] x4 | x8 | x8 | z2 A,2[K:bass] z4 | z4 z2 C,2 | D,2 z2 z4 | x8 |] %17

